assets/illustrations/adobe-after-effects-logo.svg

<svg width="50" height="51" viewBox="0 0 50 51" fill="none" xmlns="http://www.w3.org/2000/svg">
<g clip-path="url(#clip0_217_2760)">
<path d="M8.85422 0.200195H41.1458C46.042 0.200195 50 4.26014 50 9.28147V41.1189C50 46.1403 46.042 50.2002 41.1458 50.2002H8.85422C3.95843 50.2002 0 46.1403 0 41.1189V9.28147C0 4.26014 3.95843 0.200195 8.85422 0.200195Z" fill="#00005B"/>
<path d="M20.0832 30.115H12.3332L10.7498 35.1575C10.7081 35.3497 10.5417 35.4778 10.3542 35.4567H6.43742C6.20786 35.4567 6.14569 35.3286 6.20786 35.0721L12.9162 15.3497C12.9789 15.1359 13.041 14.9436 13.1247 14.6871C13.2079 14.2382 13.2495 13.7683 13.2495 13.2979C13.229 13.191 13.3122 13.0846 13.4164 13.063H18.812C18.9579 13.063 19.0621 13.1272 19.0827 13.2337L26.6868 35.1359C26.7494 35.3708 26.6868 35.4773 26.4783 35.4773H22.1238C21.9785 35.4989 21.8321 35.3919 21.791 35.2423L20.0822 30.114L20.0832 30.115ZM13.5417 25.8623H18.833C18.7082 25.4135 18.5413 24.8798 18.3538 24.3241C18.1664 23.7472 17.9789 23.1277 17.7914 22.4866C17.5829 21.824 17.3954 21.1829 17.1869 20.5207C16.9789 19.8585 16.7914 19.2385 16.6245 18.619C16.4576 18.0206 16.3122 17.4648 16.1659 16.9522H16.1243C15.9368 17.871 15.7072 18.7897 15.416 19.7089C15.1037 20.7345 14.7909 21.8029 14.4576 22.8712C14.1869 23.9611 13.8536 24.9647 13.5413 25.8623H13.5417Z" fill="#9999FF"/>
<path d="M39.0418 28.1493H32.4372C32.5204 28.8115 32.7289 29.4741 33.0833 30.051C33.4583 30.6278 33.9791 31.0766 34.6046 31.3327C35.4377 31.6957 36.3545 31.8879 37.2708 31.8668C38.0001 31.8453 38.7295 31.7815 39.4373 31.6314C40.0834 31.5461 40.708 31.3749 41.2914 31.1399C41.3957 31.0546 41.4579 31.0972 41.4579 31.3106V34.5798C41.4579 34.6652 41.4373 34.7505 41.4162 34.8364C41.3746 34.9006 41.333 34.9433 41.2704 34.986C40.6037 35.2852 39.9165 35.4986 39.1871 35.6271C38.2077 35.8194 37.2287 35.9047 36.2292 35.8836C34.6457 35.8836 33.3124 35.6271 32.2292 35.1361C31.2081 34.6873 30.3124 33.9819 29.6041 33.1059C28.9374 32.2725 28.4582 31.3327 28.1665 30.307C27.8747 29.3025 27.7289 28.2557 27.7289 27.1869C27.7289 26.0332 27.8953 24.9006 28.2497 23.7896C28.583 22.7213 29.1038 21.7383 29.8126 20.8623C30.4998 20.0073 31.3545 19.324 32.3334 18.8326C33.3129 18.3411 34.4793 18.1699 35.8127 18.1699C36.9169 18.1488 38.0207 18.3622 39.0422 18.8326C39.8964 19.2171 40.6463 19.794 41.2297 20.5415C41.7711 21.2679 42.2092 22.0797 42.4799 22.9774C42.7505 23.8323 42.8754 24.7079 42.8754 25.5844C42.8754 26.097 42.8548 26.5458 42.8338 26.9519C42.7922 27.3581 42.7711 27.6568 42.7505 27.8491C42.73 27.9987 42.6052 28.1267 42.4588 28.1267C42.334 28.1267 42.1049 28.1483 41.7711 28.1694C41.4382 28.2126 41.0423 28.2336 40.5631 28.2336C40.0839 28.2336 39.5836 28.1483 39.0422 28.1483L39.0418 28.1493ZM32.4372 25.0296H36.8332C37.3751 25.0296 37.7706 25.0296 38.0207 25.0086C38.1876 24.987 38.3545 24.9443 38.4999 24.8374V24.624C38.4999 24.3464 38.4578 24.0898 38.3751 23.8333C38.0001 22.6364 36.8959 21.8247 35.6668 21.8673C34.5209 21.8031 33.4377 22.4231 32.8958 23.4914C32.6457 23.9829 32.4999 24.496 32.4372 25.0296Z" fill="#9999FF"/>
</g>
<defs>
<clipPath id="clip0_217_2760">
<rect width="50" height="50" fill="white" transform="translate(0 0.200195)"/>
</clipPath>
</defs>
</svg>

<svg width="50" height="51" fill="none" xmlns="http://www.w3.org/2000/svg"><g clip-path="url(#a)"><path d="M8.854.2h32.292C46.042.2 50 4.26 50 9.281V41.12c0 5.021-3.958 9.081-8.854 9.081H8.854C3.958 50.2 0 46.14 0 41.12V9.28C0 4.261 3.958.201 8.854.201Z" fill="#00005B"/><path d="M20.083 30.115h-7.75l-1.583 5.043a.366.366 0 0 1-.396.299H6.437c-.23 0-.291-.128-.23-.385l6.71-19.722c.062-.214.124-.406.208-.663.083-.449.124-.919.124-1.39-.02-.106.063-.212.167-.234h5.396c.146 0 .25.064.27.17l7.605 21.903c.062.235 0 .341-.209.341h-4.354c-.145.022-.292-.085-.333-.235l-1.709-5.128.001.001Zm-6.541-4.253h5.291a30.736 30.736 0 0 0-.48-1.538 65.812 65.812 0 0 1-.562-1.837c-.208-.663-.396-1.304-.604-1.966a48 48 0 0 1-.563-1.902c-.166-.598-.312-1.154-.458-1.667h-.042a26.93 26.93 0 0 1-.708 2.757c-.312 1.026-.625 2.094-.958 3.162a33.905 33.905 0 0 1-.917 2.991Zm25.5 2.288h-6.605c.083.662.292 1.324.646 1.901a3.32 3.32 0 0 0 1.522 1.282c.833.363 1.75.555 2.666.534.73-.022 1.459-.085 2.166-.236a7.658 7.658 0 0 0 1.854-.491c.105-.085.167-.043.167.17v3.27c0 .085-.02.17-.042.256a.49.49 0 0 1-.146.15 8.69 8.69 0 0 1-2.083.641c-.98.192-1.958.278-2.958.257-1.583 0-2.917-.257-4-.748a7.035 7.035 0 0 1-2.625-2.03 7.91 7.91 0 0 1-1.438-2.799 11.163 11.163 0 0 1-.437-3.12c0-1.154.166-2.286.52-3.397a8.781 8.781 0 0 1 1.564-2.928 7.577 7.577 0 0 1 2.52-2.03c.98-.49 2.146-.662 3.48-.662a7.367 7.367 0 0 1 3.23.663 5.758 5.758 0 0 1 2.187 1.709c.541.726.98 1.538 1.25 2.435.27.855.395 1.73.395 2.607 0 .513-.02.962-.041 1.368-.042.406-.063.705-.084.897-.02.15-.145.278-.291.278-.125 0-.354.021-.688.042a9.516 9.516 0 0 1-1.208.065c-.48 0-.98-.086-1.52-.086l-.001.001Zm-6.605-3.12h4.396c.542 0 .938 0 1.188-.021.167-.022.334-.065.479-.172v-.213a2.53 2.53 0 0 0-.125-.79c-.375-1.198-1.48-2.01-2.708-1.967-1.146-.064-2.23.556-2.771 1.624a4.518 4.518 0 0 0-.459 1.539Z" fill="#99F"/></g><defs><clipPath id="a"><path fill="#fff" transform="translate(0 .2)" d="M0 0h50v50H0z"/></clipPath></defs></svg>
